X: 1
T: George Peoples'
M: 4/4
L: 1/8
R: reel
K: Dmaj
EG|:AF ~F2 DFAd|BG ~G2 GBdg|fd ~d2 {e}dc AB|{d}cAAG EFGB|
AF ~F2 DFAd|~B2 GA BcdB|AF ~F2 GECD|1 EA,CE D3B:|2 EA,CE D3E||
|:FD (3DDD FAGF|EDCD EFGA|BG ~G2 {A}GECD|~E2 FD EFGB|
AF ~F2 DFAd|~B2 GA BcdB|AF ~F2 GECD|1 EA,CE D3E:|2 EA,CE D3e||
|:fd ~d2 BdAG|FAde {a}fdef|{a}geed (3ege ed|cA (3AAA (3Bcd eg|
fa ~a2 gabg|dBGA BcdB|AF ~F2 GECD|1 EA,CE D3e:|2 EA,CE D4||
